assets/icons/document/template-filled.svg

<?xml version="1.0" encoding="UTF-8" standalone="no"?>
<svg
   viewBox="0 0 24 24"
   height="24"
   id="svg7384"
   version="1.1"
   width="24"
   sodipodi:docname="template.svg"
   inkscape:version="1.2 (1:1.2.1+202207142221+cd75a1ee6d)"
   xmlns:inkscape="http://www.inkscape.org/namespaces/inkscape"
   xmlns:sodipodi="http://sodipodi.sourceforge.net/DTD/sodipodi-0.dtd"
   xmlns="http://www.w3.org/2000/svg"
   xmlns:svg="http://www.w3.org/2000/svg"
   xmlns:rdf="http://www.w3.org/1999/02/22-rdf-syntax-ns#"
   xmlns:cc="http://creativecommons.org/ns#"
   xmlns:dc="http://purl.org/dc/elements/1.1/">
  <sodipodi:namedview
     id="namedview21"
     pagecolor="#ffffff"
     bordercolor="#666666"
     borderopacity="1.0"
     inkscape:pageshadow="2"
     inkscape:pageopacity="0.0"
     inkscape:pagecheckerboard="0"
     showgrid="true"
     inkscape:zoom="32"
     inkscape:cx="10.96875"
     inkscape:cy="12.703125"
     inkscape:window-width="1920"
     inkscape:window-height="1016"
     inkscape:window-x="0"
     inkscape:window-y="0"
     inkscape:window-maximized="1"
     inkscape:current-layer="svg7384"
     inkscape:showpageshadow="2"
     inkscape:deskcolor="#d1d1d1">
    <inkscape:grid
       type="xygrid"
       id="grid838" />
    <inkscape:grid
       type="xygrid"
       id="grid957"
       dotted="true"
       spacingx="0.5"
       spacingy="0.5"
       empspacing="10" />
  </sodipodi:namedview>
  <metadata
     id="metadata20854">
    <rdf:RDF>
      <cc:Work
         rdf:about="">
        <dc:format>image/svg+xml</dc:format>
        <dc:type
           rdf:resource="http://purl.org/dc/dcmitype/StillImage" />
      </cc:Work>
    </rdf:RDF>
  </metadata>
  <defs
     id="defs7386">
    <linearGradient
       id="linearGradient5606"
       inkscape:swatch="solid">
      <stop
         id="stop5608"
         offset="0"
         style="stop-color:#000000;stop-opacity:1;" />
    </linearGradient>
    <linearGradient
       id="linearGradient4526"
       inkscape:swatch="solid">
      <stop
         id="stop4528"
         offset="0"
         style="stop-color:#ffffff;stop-opacity:1;" />
    </linearGradient>
    <linearGradient
       id="linearGradient3600-4"
       inkscape:swatch="gradient">
      <stop
         id="stop3602-7"
         offset="0"
         style="stop-color:#f4f4f4;stop-opacity:1" />
      <stop
         id="stop3604-6"
         offset="1"
         style="stop-color:#dbdbdb;stop-opacity:1" />
    </linearGradient>
  </defs>
  <path
     id="path2256"
     style="color:#000000;fill:#808080;fill-opacity:1"
     d="M 3 5.609375 L 3 18 L 3.5 18 L 23.277344 18 L 3 5.609375 z M 5 9.2109375 L 16.1875 16 L 5.5 16 L 5 16 L 5 9.2109375 z M 6 10.988281 L 6 15 L 12.611328 15 L 6 10.988281 z " />
  <path
     id="path874"
     style="color:#000000;fill:#808080;fill-opacity:1"
     d="m 7.4550781,2.0019531 c -0.9685799,0.00898 -1.7178196,0.073269 -2.3378906,0.4453125 -0.4133811,0.2480285 -0.719938,0.655908 -0.8886719,1.1621094 -0.134599,0.4037971 -0.1978502,0.8773016 -0.21875,1.4453125 l 0.9902344,0.6054687 15,9.1660158 1,0.609375 v -7.435547 h -5 -1 v -5.9980469 h -6.5 c -0.3749992,0 -0.7220619,-0.00299 -1.0449219,0 z m 8.5449219,0.2929688 v 4.7050781 h 4.705078 z m -11.9902344,16.7050781 c 0.023361,0.547907 0.091918,1.009697 0.2402344,1.410156 0.1914418,0.516894 0.5529634,0.926872 1.0273438,1.164063 0.9487597,0.474379 2.2226602,0.427734 4.2226562,0.427734 h 7 c 1.499997,0 2.556051,0.05074 3.382812,-0.445312 0.413382,-0.248029 0.719939,-0.655908 0.888672,-1.16211 0.130726,-0.392176 0.195952,-0.848379 0.21875,-1.394531 z"
     sodipodi:nodetypes="cssccccccccsccccccsssssscc" />
</svg>

<svg height="24" width="24" xmlns="http://www.w3.org/2000/svg"><path style="color:#000;fill:gray;fill-opacity:1" d="M3 5.61V18h20.277L3 5.61zm2 3.6L16.188 16H5V9.21zm1 1.778V15h6.611L6 10.988zm1.455-8.986c-.969.009-1.718.073-2.338.445-.413.248-.72.656-.888 1.162-.135.404-.198.878-.22 1.446L5 5.66l15 9.166 1 .61V8h-6V2.002H8.5c-.375 0-.722-.003-1.045 0zM16 2.295V7h4.705zM4.01 19c.023.548.092 1.01.24 1.41.191.517.553.927 1.027 1.164.95.475 2.223.428 4.223.428h7c1.5 0 2.556.05 3.383-.445.413-.248.72-.656.888-1.162.131-.393.196-.849.22-1.395z"/></svg>
